static/images/homeOurProducts2.svg

<?xml version="1.0" encoding="UTF-8"?>
<svg width="554px" height="464px" viewBox="0 0 554 464" version="1.1" xmlns="http://www.w3.org/2000/svg" xmlns:xlink="http://www.w3.org/1999/xlink">
    <!-- Generator: sketchtool 46.2 (44496) - http://www.bohemiancoding.com/sketch -->
    <title>B3F71A92-7140-4C52-9BE1-766D3DF08009</title>
    <desc>Created with sketchtool.</desc>
    <defs>
        <path d="M384,206.548587 C384,112.362355 306.770182,36 211.5,36 C116.229818,36 39,112.362355 39,206.548587 C39,264.820388 68.5759091,316.239237 113.670545,347 L309.323182,347 C354.424091,316.239237 384,264.820388 384,206.548587" id="path-1"></path>
        <filter x="-7.5%" y="-7.1%" width="115.1%" height="116.7%" filterUnits="objectBoundingBox" id="filter-2">
            <feOffset dx="0" dy="4" in="SourceAlpha" result="shadowOffsetOuter1"></feOffset>
            <feGaussianBlur stdDeviation="8" in="shadowOffsetOuter1" result="shadowBlurOuter1"></feGaussianBlur>
            <feColorMatrix values="0 0 0 0 0.254901961   0 0 0 0 0.458823529   0 0 0 0 0.647058824  0 0 0 0.24 0" type="matrix" in="shadowBlurOuter1"></feColorMatrix>
        </filter>
    </defs>
    <g id="Page-1" stroke="none" stroke-width="1" fill="none" fill-rule="evenodd">
        <g id="Home-Page---new" transform="translate(-30.000000, -2096.000000)">
            <g id="Products" transform="translate(0.000000, 1427.000000)">
                <g id="UI" transform="translate(30.000000, 669.000000)">
                    <g id="Icon2_Rakam_UI">
                        <g id="Group-10" transform="translate(130.068768, 0.000000)">
                            <g id="Group-25" transform="translate(-0.000000, 0.000000)">
                                <path d="M423,209.484117 C423,93.7955611 328.309527,0 211.5,0 C94.6904727,0 0,93.7955611 0,209.484117 C0,281.059126 36.2626364,344.216683 91.5525818,382 L331.439727,382 C386.737364,344.216683 423,281.059126 423,209.484117" id="Fill-613" fill="#FFFFFF"></path>
                                <g id="Fill-613">
                                    <use fill="black" fill-opacity="1" filter="url(#filter-2)" xlink:href="#path-1"></use>
                                    <use fill="#FFFFFF" fill-rule="evenodd" xlink:href="#path-1"></use>
                                </g>
                                <path d="M341.749142,410.695544 L43.7029001,410.695544 C40.2357854,410.695544 37.4218952,407.944769 37.4218952,404.555421 C37.4218952,401.157886 40.2357854,398.415297 43.7029001,398.415297 L341.749142,398.415297 C345.216257,398.415297 348.030147,401.157886 348.030147,404.555421 C348.030147,407.944769 345.216257,410.695544 341.749142,410.695544" id="Fill-614" fill="#EEEEEE"></path>
                                <path d="M290.077409,437.179942 L95.3662586,437.179942 C91.8991439,437.179942 89.0852538,434.429167 89.0852538,431.039819 C89.0852538,427.650471 91.8991439,424.899695 95.3662586,424.899695 L290.077409,424.899695 C293.544524,424.899695 296.358414,427.650471 296.358414,431.039819 C296.358414,434.429167 293.544524,437.179942 290.077409,437.179942" id="Fill-615" fill="#EEEEEE" opacity="0.800000012"></path>
                                <path d="M195.359856,463.66434 L156.225008,463.66434 C152.757894,463.66434 149.944003,460.913565 149.944003,457.524217 C149.944003,454.134869 152.757894,451.384094 156.225008,451.384094 L195.359856,451.384094 C198.826971,451.384094 201.640861,454.134869 201.640861,457.524217 C201.640861,460.913565 198.826971,463.66434 195.359856,463.66434" id="Fill-616" fill="#EFEFEF" opacity="0.601449275"></path>
                                <path d="M229.696016,463.66434 L219.244424,463.66434 C215.777309,463.66434 212.963419,460.913565 212.963419,457.524217 C212.963419,454.134869 215.777309,451.384094 219.244424,451.384094 L229.696016,451.384094 C233.16313,451.384094 235.977021,454.134869 235.977021,457.524217 C235.977021,460.913565 233.16313,463.66434 229.696016,463.66434" id="Fill-617" fill="#EFEFEF" opacity="0.601449275"></path>
                            </g>
                        </g>
                        <g id="Page-1" transform="translate(0.000000, 109.478405)">
                            <path d="M468,239.521595 C468,249.518794 460.018658,257.521595 450,257.521595 L94,257.521595 C83.9758101,257.521595 76,249.518794 76,239.521595 L76,18.5215947 C76,8.52485801 83.9758101,0.521594684 94,0.521594684 L450,0.521594684 C460.018658,0.521594684 468,8.52485801 468,18.5215947 L468,239.521595 Z" id="Fill-1" fill="#EFEFEF"></path>
                            <path d="M96,241.521595 L448,241.521595 L448,241.521595 C449.104569,241.521595 450,240.626164 450,239.521595 L450,21.5215947 L450,21.5215947 C450,20.4170252 449.104569,19.5215947 448,19.5215947 L96,19.5215947 L96,19.5215947 C94.8954305,19.5215947 94,20.4170252 94,21.5215947 L94,239.521595 L94,239.521595 C94,240.626164 94.8954305,241.521595 96,241.521595 Z" id="Fill-4" fill="#646782"></path>
                            <path d="M0.353812162,257.848873 C0.128477246,259.374305 -9.0860853e-05,260.948773 -9.0860853e-05,262.557564 C-9.0860853e-05,276.173675 8.41907578,287.204753 18.7994739,287.204753 L520.762528,287.204753 C531.142926,287.204753 539.556641,276.173675 539.556641,262.557564 C539.556641,260.948773 539.43307,259.374305 539.205464,257.848873 L0.353812162,257.848873 Z" id="Fill-6" fill="#FFFEFE"></path>
                            <path d="M1.61691431,272.529309 C4.53899934,281.169265 11.1255026,287.204574 18.7991559,287.204574 L520.762664,287.204574 C528.439044,287.204574 535.025092,281.169265 537.948086,272.529309 L1.61691431,272.529309 Z" id="Fill-7" fill="#E0E0E0"></path>
                            <path d="M277,10.5215947 C277,13.2779766 274.763396,15.5215947 272,15.5215947 C269.239696,15.5215947 267,13.2779766 267,10.5215947 C267,7.76035451 269.239696,5.52159468 272,5.52159468 C274.763396,5.52159468 277,7.76035451 277,10.5215947" id="Fill-8" fill="#646782"></path>
                            <polygon id="Fill-9" fill="#FFFFFF" points="126.04263 226.604836 223.45773 226.604836 223.45773 224.062598 126.04263 224.062598"></polygon>
                            <path d="M134.767997,197.980469 L134.767997,197.980469 C136.1668,197.980469 137.323459,198.993263 137.323459,200.21557 L137.323459,223.400626 L132.209356,223.400626 L132.209356,200.21557 C132.209356,198.993263 133.348297,197.980469 134.767997,197.980469" id="Fill-10" fill="#FFFFFF"></path>
                            <path d="M144.670377,195.226622 L144.670377,195.226622 C146.069179,195.226622 147.228564,196.352197 147.228564,197.705115 L147.228564,223.40076 L142.114915,223.40076 L142.114915,197.705115 C142.114915,196.352197 143.253402,195.226622 144.670377,195.226622" id="Fill-11" fill="#FFFFFF"></path>
                            <path d="M154.572801,198.076221 L154.572801,198.076221 C155.974784,198.076221 157.134169,199.089015 157.134169,200.313997 L157.134169,223.592219 L152.01734,223.592219 L152.01734,200.313997 C152.01734,199.089015 153.155826,198.076221 154.572801,198.076221" id="Fill-12" fill="#FFFFFF"></path>
                            <path d="M165.28843,184.874589 L165.28843,184.874589 C166.687233,184.874589 167.847072,186.404033 167.847072,188.270035 L167.847072,223.59213 L162.729789,223.59213 L162.729789,188.270035 C162.729789,186.404033 163.87191,184.874589 165.28843,184.874589" id="Fill-13" fill="#FFFFFF"></path>
                            <path d="M175.67001,199.205451 L175.67001,199.205451 C177.086531,199.205451 178.228651,200.168764 178.228651,201.35853 L178.228651,223.592308 L173.111368,223.592308 L173.111368,201.35853 C173.111368,200.168764 174.271207,199.205451 175.67001,199.205451" id="Fill-14" fill="#FFFFFF"></path>
                            <path d="M186.217047,209.008961 L186.237945,209.008961 C187.636748,209.008961 188.775688,209.586236 188.775688,210.294568 L188.775688,223.592397 L183.676577,223.592397 L183.676577,210.294568 C183.676577,209.586236 184.818244,209.008961 186.217047,209.008961" id="Fill-15" fill="#FFFFFF"></path>
                            <path d="M197.098633,185.002124 L197.098633,185.002124 C198.512428,185.002124 199.654095,186.531569 199.654095,188.400691 L199.654095,223.592174 L194.554984,223.592174 L194.554984,188.400691 C194.554984,186.531569 195.69665,185.002124 197.098633,185.002124" id="Fill-16" fill="#FFFFFF"></path>
                            <path d="M206.521903,187.561837 L206.521903,187.561837 C207.920706,187.561837 209.083271,188.995441 209.083271,190.733952 L209.083271,223.592263 L203.963262,223.592263 L203.963262,190.733952 C203.963262,188.995441 205.125826,187.561837 206.521903,187.561837" id="Fill-17" fill="#FFFFFF"></path>
                            <path d="M215.11993,178.629009 L215.11993,178.629009 C216.53645,178.629009 217.678571,180.399616 217.678571,182.573201 L217.678571,223.592263 L212.561288,223.592263 L212.561288,182.573201 C212.561288,180.399616 213.721127,178.629009 215.11993,178.629009" id="Fill-18" fill="#FFFFFF"></path>
                            <polygon id="Fill-19" fill="#FFFFFF" points="229.533141 194.8088 238.625133 194.8088 238.625133 186.85355 229.533141 186.85355"></polygon>
                            <polygon id="Fill-20" fill="#FFFFFF" points="229.533141 208.010342 238.625133 208.010342 238.625133 200.055538 229.533141 200.055538"></polygon>
                            <polygon id="Fill-21" fill="#FFFFFF" points="229.533141 221.499853 238.625133 221.499853 238.625133 213.547724 229.533141 213.547724"></polygon>
                            <polygon id="Fill-22" fill="#FFFFFF" points="114 49.5215947 202 49.5215947 202 45.5215947 114 45.5215947"></polygon>
                            <polygon id="Fill-23" fill="#FFFFFF" points="114 62.5215947 202 62.5215947 202 58.5215947 114 58.5215947"></polygon>
                            <polygon id="Fill-24" fill="#FFFFFF" points="114 74.5215947 202 74.5215947 202 70.5215947 114 70.5215947"></polygon>
                            <polygon id="Fill-25" fill="#FFFFFF" points="219 101.521595 307 101.521595 307 97.5215947 219 97.5215947"></polygon>
                            <polygon id="Fill-26" fill="#FFFFFF" points="126 101.521595 214 101.521595 214 97.5215947 126 97.5215947"></polygon>
                            <polygon id="Fill-27" fill="#FFFFFF" points="126 113.521595 214 113.521595 214 109.521595 126 109.521595"></polygon>
                            <polygon id="Fill-28" fill="#FFFFFF" points="219 113.521595 261 113.521595 261 109.521595 219 109.521595"></polygon>
                            <polygon id="Fill-29" fill="#FFFFFF" points="126 136.521595 214 136.521595 214 132.521595 126 132.521595"></polygon>
                            <polygon id="Fill-30" fill="#FFFFFF" points="219 136.521595 261 136.521595 261 132.521595 219 132.521595"></polygon>
                            <polygon id="Fill-31" fill="#FFFFFF" points="325 124.521595 367 124.521595 367 120.521595 325 120.521595"></polygon>
                            <polygon id="Fill-32" fill="#FFFFFF" points="126 87.5215947 317 87.5215947 317 83.5215947 126 83.5215947"></polygon>
                            <polygon id="Fill-33" fill="#FFFFFF" points="126 124.521595 317 124.521595 317 120.521595 126 120.521595"></polygon>
                            <polygon id="Fill-34" fill="#FFFFFF" points="325 150.521595 367 150.521595 367 146.521595 325 146.521595"></polygon>
                            <polygon id="Fill-35" fill="#FFFFFF" points="126 150.521595 317 150.521595 317 146.521595 126 146.521595"></polygon>
                            <polygon id="Fill-36" fill="#FFFFFF" points="413.668202 211.204746 410.23866 211.139663 411.974556 164.190493 415.407279 164.244432"></polygon>
                            <polygon id="Fill-37" fill="#FFFFFF" points="403.663741 165.384227 405.839404 168.011162 369.548671 198.447148 367.373916 195.836706"></polygon>
                            <polygon id="Fill-38" fill="#FFFFFF" points="411.952159 215.248033 410.825939 218.512422 366.589878 204.02349 367.710647 200.752859"></polygon>
                            <path d="M408.109653,172.035994 C402.024248,169.069826 399.588268,161.664213 402.679809,155.478233 C405.779073,149.306072 413.224665,146.709449 419.316885,149.687653 C425.416374,152.661845 427.845539,160.07147 424.75309,166.240065 C421.657461,172.418913 414.207325,175.00974 408.109653,172.035994" id="Fill-39" fill="#FFFFFF"></path>
                            <path d="M406.416643,225.584375 C401.354785,223.11346 399.331314,216.949768 401.905856,211.819376 C404.475401,206.692551 410.667568,204.535459 415.728972,207.005928 C420.79083,209.477289 422.806124,215.628053 420.245211,220.767806 C417.66658,225.891512 411.484862,228.051278 406.416643,225.584375" id="Fill-40" fill="#FFFFFF"></path>
                            <path d="M354.193823,217.654088 C346.50654,213.901132 343.441349,204.551507 347.349275,196.758964 C351.251294,188.970433 360.649032,185.696236 368.332226,189.442505 C376.019508,193.195461 379.087879,202.551773 375.187223,210.34075 C371.28066,218.122594 361.88156,221.407044 354.193823,217.654088" id="Fill-41" fill="#FFFFFF"></path>
                        </g>
                    </g>
                </g>
            </g>
        </g>
    </g>
</svg>

<svg height="464" viewBox="0 0 554 464" width="554" xmlns="http://www.w3.org/2000/svg" xmlns:xlink="http://www.w3.org/1999/xlink"><defs><path id="a" d="m384 206.548587c0-94.186232-77.229818-170.548587-172.5-170.548587s-172.5 76.362355-172.5 170.548587c0 58.271801 29.5759091 109.69065 74.670545 140.451413h195.652637c45.100909-30.760763 74.676818-82.179612 74.676818-140.451413"/><filter id="b" height="116.7%" width="115.1%" x="-7.5%" y="-7.1%"><feOffset dx="0" dy="4" in="SourceAlpha" result="shadowOffsetOuter1"/><feGaussianBlur in="shadowOffsetOuter1" result="shadowBlurOuter1" stdDeviation="8"/><feColorMatrix in="shadowBlurOuter1" type="matrix" values="0 0 0 0 0.254901961   0 0 0 0 0.458823529   0 0 0 0 0.647058824  0 0 0 0.24 0"/></filter></defs><g fill="none" fill-rule="evenodd"><g transform="translate(130.068768)"><path d="m423 209.484117c0-115.6885559-94.690473-209.484117-211.5-209.484117-116.8095273 0-211.5 93.7955611-211.5 209.484117 0 71.575009 36.2626364 134.732566 91.5525818 172.515883h239.8871452c55.297637-37.783317 91.560273-100.940874 91.560273-172.515883" fill="#fff"/><use fill="#000" filter="url(#b)" xlink:href="#a"/><use fill="#fff" fill-rule="evenodd" xlink:href="#a"/><path d="m341.749142 410.695544h-298.0462419c-3.4671147 0-6.2810049-2.750775-6.2810049-6.140123 0-3.397535 2.8138902-6.140124 6.2810049-6.140124h298.0462419c3.467115 0 6.281005 2.742589 6.281005 6.140124 0 3.389348-2.81389 6.140123-6.281005 6.140123" fill="#eee"/><path d="m290.077409 437.179942h-194.7111504c-3.4671147 0-6.2810048-2.750775-6.2810048-6.140123s2.8138901-6.140124 6.2810048-6.140124h194.7111504c3.467115 0 6.281005 2.750776 6.281005 6.140124s-2.81389 6.140123-6.281005 6.140123" fill="#eee" opacity=".8"/><g fill="#efefef"><path d="m195.359856 463.66434h-39.134848c-3.467114 0-6.281005-2.750775-6.281005-6.140123s2.813891-6.140123 6.281005-6.140123h39.134848c3.467115 0 6.281005 2.750775 6.281005 6.140123s-2.81389 6.140123-6.281005 6.140123" opacity=".601449"/><path d="m229.696016 463.66434h-10.451592c-3.467115 0-6.281005-2.750775-6.281005-6.140123s2.81389-6.140123 6.281005-6.140123h10.451592c3.467114 0 6.281005 2.750775 6.281005 6.140123s-2.813891 6.140123-6.281005 6.140123" opacity=".601449"/></g></g><g transform="translate(0 109.478405)"><path d="m468 239.521595c0 9.997199-7.981342 18-18 18h-356c-10.0241899 0-18-8.002801-18-18v-221.0000003c0-9.99673669 7.9758101-18.00000002 18-18.00000002h356c10.018658 0 18 8.00326333 18 18.00000002z" fill="#efefef"/><path d="m96 241.521595h352c1.104569 0 2-.895431 2-2v-218.0000003c0-1.1045695-.895431-2-2-2h-352c-1.1045695 0-2 .8954305-2 2v218.0000003c0 1.104569.8954305 2 2 2z" fill="#646782"/><path d="m.35381216 257.848873c-.22533491 1.525432-.35390302 3.0999-.35390302 4.708691 0 13.616111 8.41916664 24.647189 18.79956476 24.647189h501.9630541c10.380398 0 18.794113-11.031078 18.794113-24.647189 0-1.608791-.123571-3.183259-.351177-4.708691z" fill="#fffefe"/><path d="m1.61691431 272.529309c2.92208503 8.639956 9.50858829 14.675265 17.18224159 14.675265h501.9635081c7.67638 0 14.262428-6.035309 17.185422-14.675265z" fill="#e0e0e0"/><path d="m277 10.5215947c0 2.7563819-2.236604 5-5 5-2.760304 0-5-2.2436181-5-5 0-2.76124019 2.239696-5.00000002 5-5.00000002 2.763396 0 5 2.23875983 5 5.00000002" fill="#646782"/><g fill="#fff"><path d="m126.04263 226.604836h97.4151v-2.542238h-97.4151z"/><path d="m134.767997 197.980469c1.398803 0 2.555462 1.012794 2.555462 2.235101v23.185056h-5.114103v-23.185056c0-1.222307 1.138941-2.235101 2.558641-2.235101"/><path d="m144.670377 195.226622c1.398802 0 2.558187 1.125575 2.558187 2.478493v25.695645h-5.113649v-25.695645c0-1.352918 1.138487-2.478493 2.555462-2.478493"/><path d="m154.572801 198.076221c1.401983 0 2.561368 1.012794 2.561368 2.237776v23.278222h-5.116829v-23.278222c0-1.224982 1.138486-2.237776 2.555461-2.237776"/><path d="m165.28843 184.874589c1.398803 0 2.558642 1.529444 2.558642 3.395446v35.322095h-5.117283v-35.322095c0-1.866002 1.142121-3.395446 2.558641-3.395446"/><path d="m175.67001 199.205451c1.416521 0 2.558641.963313 2.558641 2.153079v22.233778h-5.117283v-22.233778c0-1.189766 1.159839-2.153079 2.558642-2.153079"/><path d="m186.217047 209.008961h.020898c1.398803 0 2.537743.577275 2.537743 1.285607v13.297829h-5.099111v-13.297829c0-.708332 1.141667-1.285607 2.54047-1.285607"/><path d="m197.098633 185.002124c1.413795 0 2.555462 1.529445 2.555462 3.398567v35.191483h-5.099111v-35.191483c0-1.869122 1.141666-3.398567 2.543649-3.398567"/><path d="m206.521903 187.561837c1.398803 0 2.561368 1.433604 2.561368 3.172115v32.858311h-5.120009v-32.858311c0-1.738511 1.162564-3.172115 2.558641-3.172115"/><path d="m215.11993 178.629009c1.41652 0 2.558641 1.770607 2.558641 3.944192v41.019062h-5.117283v-41.019062c0-2.173585 1.159839-3.944192 2.558642-3.944192"/><path d="m229.533141 194.8088h9.091992v-7.95525h-9.091992z"/><path d="m229.533141 208.010342h9.091992v-7.954804h-9.091992z"/><path d="m229.533141 221.499853h9.091992v-7.952129h-9.091992z"/><path d="m114 49.5215947h88v-4h-88z"/><path d="m114 62.5215947h88v-4h-88z"/><path d="m114 74.5215947h88v-4h-88z"/><path d="m219 101.521595h88v-4.0000003h-88z"/><path d="m126 101.521595h88v-4.0000003h-88z"/><path d="m126 113.521595h88v-4h-88z"/><path d="m219 113.521595h42v-4h-42z"/><path d="m126 136.521595h88v-4h-88z"/><path d="m219 136.521595h42v-4h-42z"/><path d="m325 124.521595h42v-4h-42z"/><path d="m126 87.5215947h191v-4h-191z"/><path d="m126 124.521595h191v-4h-191z"/><path d="m325 150.521595h42v-4h-42z"/><path d="m126 150.521595h191v-4h-191z"/><path d="m413.668202 211.204746-3.429542-.065083 1.735896-46.94917 3.432723.053939z"/><path d="m403.663741 165.384227 2.175663 2.626935-36.290733 30.435986-2.174755-2.610442z"/><path d="m411.952159 215.248033-1.12622 3.264389-44.236061-14.488932 1.120769-3.270631z"/><path d="m408.109653 172.035994c-6.085405-2.966168-8.521385-10.371781-5.429844-16.557761 3.099264-6.172161 10.544856-8.768784 16.637076-5.79058 6.099489 2.974192 8.528654 10.383817 5.436205 16.552412-3.095629 6.178848-10.545765 8.769675-16.643437 5.795929"/><path d="m406.416643 225.584375c-5.061858-2.470915-7.085329-8.634607-4.510787-13.764999 2.569545-5.126825 8.761712-7.283917 13.823116-4.813448 5.061858 2.471361 7.077152 8.622125 4.516239 13.761878-2.578631 5.123706-8.760349 7.283472-13.828568 4.816569"/><path d="m354.193823 217.654088c-7.687283-3.752956-10.752474-13.102581-6.844548-20.895124 3.902019-7.788531 13.299757-11.062728 20.982951-7.316459 7.687282 3.752956 10.755653 13.109268 6.854997 20.898245-3.906563 7.781844-13.305663 11.066294-20.9934 7.313338"/></g></g></g></svg>
